svg/hormonal_ring_negative.svg

<svg width="48" height="48" viewBox="0 0 48 48" fill="none" xmlns="http://www.w3.org/2000/svg">
<path fill-rule="evenodd" clip-rule="evenodd" d="M0 0V47.9994H47.9994V0H0ZM23.9997 4.19915C34.9356 4.19915 43.8005 13.0638 43.8005 23.9999C43.8005 34.936 34.9356 43.8007 23.9997 43.8007C13.0638 43.8007 4.19895 34.9358 4.19895 23.9999C4.19915 13.064 13.0638 4.19915 23.9997 4.19915ZM23.9997 7.9999C15.1628 7.9999 7.9999 15.1628 7.9999 23.9997C7.9999 32.8366 15.1628 39.9995 23.9997 39.9995C32.8366 39.9995 39.9995 32.8366 39.9995 23.9997C39.9995 15.1628 32.8366 7.9999 23.9997 7.9999Z" fill="#333333"/>
</svg>

<?xml version="1.0" encoding="UTF-8" standalone="no"?>
<!-- Created with Inkscape (http://www.inkscape.org/) -->
<svg id="svg8" xmlns:rdf="http://www.w3.org/1999/02/22-rdf-syntax-ns#" xmlns="http://www.w3.org/2000/svg" xmlns:osb="http://www.openswatchbook.org/uri/2009/osb" height="48" width="48" version="1.1" xmlns:cc="http://creativecommons.org/ns#" viewBox="0 0 12.7 12.7" xmlns:dc="http://purl.org/dc/elements/1.1/">
 <title id="title4753">UIO-icon</title>
 <metadata id="metadata5">
  <rdf:RDF>
   <cc:Work rdf:about="">
    <dc:format>image/svg+xml</dc:format>
    <dc:type rdf:resource="http://purl.org/dc/dcmitype/StillImage"/>
    <dc:title>UIO-icon</dc:title>
    <dc:creator>
     <cc:Agent>
      <dc:title>Joaquín Urbano</dc:title>
     </cc:Agent>
    </dc:creator>
    <dc:rights>
     <cc:Agent>
      <dc:title>GPL</dc:title>
     </cc:Agent>
    </dc:rights>
   </cc:Work>
  </rdf:RDF>
 </metadata>
 <g id="layer1" fill="#333" transform="translate(0,-284.3)">
  <path id="rect910" d="m0 0v48h48v-48h-48zm24 4.1992c10.936 0 19.801 8.8648 19.801 19.801s-8.865 19.801-19.801 19.801-19.801-8.865-19.801-19.801c0.0002-10.936 8.865-19.801 19.801-19.801zm0 3.8008c-8.837 0-16 7.163-16 16s7.163 16 16 16 16-7.163 16-16-7.163-16-16-16z" fill-rule="evenodd" transform="matrix(.26458 0 0 .26458 0 284.3)"/>
 </g>
</svg>
